svg/emoji_u1f9fc.svg

<?xml version="1.0" encoding="utf-8"?>
<!-- Generator: Adobe Illustrator 25.2.3, SVG Export Plug-In . SVG Version: 6.00 Build 0)  -->
<svg version="1.1" id="Layer_4" xmlns="http://www.w3.org/2000/svg" xmlns:xlink="http://www.w3.org/1999/xlink" x="0px" y="0px"
	 viewBox="0 0 128 128" style="enable-background:new 0 0 128 128;" xml:space="preserve">
<g>
	
		<radialGradient id="SVGID_1_" cx="55.2159" cy="35.0908" r="22.3828" gradientTransform="matrix(1 0 0 1.0089 0 -0.3121)" gradientUnits="userSpaceOnUse">
		<stop  offset="0.5219" style="stop-color:#80DEEA;stop-opacity:0"/>
		<stop  offset="1" style="stop-color:#80DEEA"/>
	</radialGradient>
	<path style="opacity:0.7;fill:url(#SVGID_1_);" d="M53.31,14.36c9.72,0,19.58,6.6,19.58,16.32s-9.87,18.86-19.58,18.86
		c-5.23,0-11.72-1.59-14.95-5.22c0,0-2.91-3.84-2.65-12.37C36.02,22.24,43.6,14.36,53.31,14.36z"/>
	
		<radialGradient id="SVGID_2_" cx="35.8091" cy="43.7572" r="11.565" gradientTransform="matrix(1 0 0 1.0089 0 -0.3891)" gradientUnits="userSpaceOnUse">
		<stop  offset="0.545" style="stop-color:#80DEEA;stop-opacity:0"/>
		<stop  offset="1" style="stop-color:#80DEEA"/>
	</radialGradient>
	<circle style="opacity:0.7;fill:url(#SVGID_2_);" cx="34.29" cy="42.17" r="11.78"/>
	<path style="fill:#F47FAC;" d="M11.92,54.31c13.95-13.66,98.74-20.54,104.77-13.37c3.46,4.11,7.12,10.99,7.29,16.05
		c0.28,8.53-3.05,15.16-7.81,19.47c-2.58,2.33-7.4,6.03-10.3,7.94c-12.72,8.39-26.11,17.4-37.5,23.75
		c-10.74,5.99-19.96,7.57-28.96,2.24c-2.77-1.64-16.85-9.86-25.35-16.94C7.57,88.06,3.8,77.58,4.01,70.64
		C4.15,65.77,7.25,58.88,11.92,54.31z"/>
	<path style="fill:#F47FAC;" d="M15.45,51.44c16.34-10.68,48.44-28.83,54.3-31.52c4.86-2.23,10.98-3.1,21.66,2.18
		c0,0,9.9,4.82,17.25,10.64c7.06,5.59,13.4,12.03,6.97,20.1c-2.16,2.72-7.4,6.03-10.3,7.94c-12.72,8.39-26.11,17.4-37.5,23.75
		c-10.74,5.99-19.96,7.57-28.96,2.24c-2.77-1.64-16.39-10.46-25.35-16.94C3.46,62.56,10.07,54.96,15.45,51.44z"/>
	<path style="fill:#FFB6C1;" d="M18.23,51.54c15.29-9.99,45.62-26.91,51.11-29.42c4.55-2.08,10.28-2.9,20.27,2.04
		c0,0,9.26,4.51,16.14,9.95c6.61,5.23,12.54,11.25,6.52,18.81c-2.02,2.55-6.93,5.64-9.64,7.43c-11.9,7.85-24.43,16.28-35.09,22.22
		c-10.05,5.6-18.68,7.08-27.1,2.1c-2.59-1.54-15.34-9.79-23.72-15.85C7.3,62.02,13.2,54.82,18.23,51.54z"/>
	<path style="fill:#FF97AB;" d="M8.05,71.15c-0.78,1.15-1.01,2.74-1.04,4.2c-0.24,11.81,14.27,20.21,22.88,26.23
		c4.28,3,8.64,5.51,14.05,5.41c2.04-0.04,4.16-0.7,5.54-2.21c1.9-2.09,1.98-5.22,1.85-8.05c-0.06-1.24-0.18-2.59-1.04-3.48
		c-0.56-0.57-1.35-0.86-2.1-1.14c-7.33-2.74-23.02-13.48-30.39-18.85C15.18,71.36,11.07,66.69,8.05,71.15z"/>
	<path style="fill:#FF97AB;" d="M114.85,53.61c-0.83,1.2-1.93,2.29-2.26,3.71c-0.45,1.96,0.71,3.89,1.2,5.84
		c0.63,2.54,0.14,5.31,1.1,7.74c0.17,0.43,0.43,0.88,0.86,1.05c0.69,0.26,1.4-0.31,1.87-0.88c2.31-2.78,4.2-7.57,4.26-11.18
		c0.04-2.68-0.93-7.7-2.67-9.89C117.1,47.35,115.9,52.08,114.85,53.61z"/>
	<path style="fill:#FFB6C1;" d="M21.43,85.23c-0.44-1.07-1.37-1.88-2.36-2.47c-0.24-0.14-0.49-0.28-0.66-0.5
		c-0.42-0.53-0.25-1.28-0.27-1.95c-0.05-1.44-1.19-2.76-2.61-3.02c-0.68-0.12-1.47,0-1.91,0.54c-1.12,1.4-0.12,3.32,0.62,3.97
		c0.45,0.39,1.65,0.62,1.43,1.68c-0.04,0.19-0.13,0.36-0.21,0.53c-0.36,0.76-0.43,1.66-0.19,2.47c0.45,1.51,1.86,2.35,3.37,2.49
		c0.75,0.07,1.56-0.07,2.14-0.54C21.7,87.68,21.87,86.3,21.43,85.23z"/>
	<path style="fill:#FF97AB;" d="M55.21,103.43c0.99,0.2,1.93,0.99,1.98,2c0.04,0.76-0.42,1.49-1.03,1.94
		c-0.61,0.46-3.45,2.45-6.31,0.55c-0.45-0.3-0.69-0.84-1.04-1.26c-0.35-0.42-0.83-0.79-1.37-0.78c-2.5,0.03-1.13-3.08,1.03-2.13
		c0.83,0.37,1.47,0.71,2.41,0.52C52.36,103.98,53.63,103.11,55.21,103.43z"/>
	<path style="fill:#FF97AB;" d="M64.43,93.49c-0.93,0.8-1.64,1.86-2.02,3.02c-0.17,0.52-0.26,1.15,0.1,1.56
		c0.3,0.35,0.82,0.42,1.28,0.39c1.35-0.07,2.63-0.72,3.67-1.58c0.99-0.82,2.69-3.1,1.09-4.19C67.38,91.9,65.35,92.7,64.43,93.49z"/>
	
		<radialGradient id="SVGID_3_" cx="50.3678" cy="26.2434" r="21.3675" gradientTransform="matrix(1 0 0 1.0089 0 -0.2334)" gradientUnits="userSpaceOnUse">
		<stop  offset="0.6007" style="stop-color:#FFFFFF;stop-opacity:0"/>
		<stop  offset="1" style="stop-color:#FFFFFF;stop-opacity:0.8"/>
	</radialGradient>
	<path style="fill:url(#SVGID_3_);" d="M53.31,14.36c9.72,0,19.58,6.6,19.58,16.32s-9.87,18.86-19.58,18.86
		c-5.23,0-11.72-1.59-14.95-5.22c0,0-2.91-3.84-2.65-12.37C36.02,22.24,43.6,14.36,53.31,14.36z"/>
	<radialGradient id="SVGID_4_" cx="85.5637" cy="97.9075" r="9.1951" gradientUnits="userSpaceOnUse">
		<stop  offset="0.3759" style="stop-color:#80DEEA;stop-opacity:0"/>
		<stop  offset="1" style="stop-color:#80DEEA;stop-opacity:0.8"/>
	</radialGradient>
	<path style="fill:url(#SVGID_4_);" d="M76.37,95.24c2.47-7.08,9.59-5.7,9.59-5.7c6.59,0.63,9.46,11.32,9.46,11.32
		s-5.72,7.85-14.71,4.85C76.19,104.19,74.69,100.06,76.37,95.24z"/>
	<radialGradient id="SVGID_5_" cx="99.1163" cy="87.032" r="14.931" gradientUnits="userSpaceOnUse">
		<stop  offset="0.3759" style="stop-color:#80DEEA;stop-opacity:0"/>
		<stop  offset="1" style="stop-color:#80DEEA;stop-opacity:0.8"/>
	</radialGradient>
	<path style="fill:url(#SVGID_5_);" d="M86.04,89.54c1.79-10.41,9.7-16.02,19.19-14.98c4.98,0.55,10.37,8.63,7.43,17.68
		c-2.52,7.75-11.62,9.9-17.23,8.61C85.55,98.6,86.04,89.54,86.04,89.54z"/>
	<radialGradient id="SVGID_6_" cx="101.3854" cy="61.0873" r="7.785" gradientUnits="userSpaceOnUse">
		<stop  offset="0.5573" style="stop-color:#FFFFFF;stop-opacity:0"/>
		<stop  offset="1" style="stop-color:#FFFFFF;stop-opacity:0.8"/>
	</radialGradient>
	<circle style="fill:url(#SVGID_6_);" cx="101.25" cy="61.06" r="8.12"/>
	<path style="opacity:0.9;fill:#FFFFFF;" d="M57.64,18.2c2.61,0.99,4.89,3.02,5.84,5.65c0.55,1.53,0.5,3.53-0.84,4.45
		c-0.84,0.57-2.48,0.94-5.78-1.5c-5.19-3.84-6.64-0.5-11.27-1.63c-3.59-0.87-1.96-3.81-1.32-4.55C47.4,16.99,53.44,16.6,57.64,18.2z
		"/>
	<path style="opacity:0.9;fill:#FFFFFF;" d="M25.91,40.7c0.43,0.26,1,0.12,1.43-0.15c0.98-0.6,0.65-2.25,2.61-4.05
		c0.36-0.33,1.69-1.63,0.83-2.5c-1.13-1.14-3.23-0.29-4.56,1.48C24.73,37.48,24.54,39.88,25.91,40.7z"/>
	
		<radialGradient id="SVGID_7_" cx="75.8437" cy="30.8364" r="9.5558" gradientTransform="matrix(1 0 0 1.0089 0 -0.2742)" gradientUnits="userSpaceOnUse">
		<stop  offset="0.5573" style="stop-color:#FFFFFF;stop-opacity:0"/>
		<stop  offset="1" style="stop-color:#FFFFFF;stop-opacity:0.8"/>
	</radialGradient>
	<path style="fill:url(#SVGID_7_);" d="M69.02,41.08c0,0-2.91-3.12-2.35-10.69c0.41-5.52,3.65-8.03,3.65-8.03s9.14-1.43,13.66,3.48
		c3.62,3.93,2.82,9.03-1.58,12.29C75.68,43.1,69.02,41.08,69.02,41.08z"/>
	
		<radialGradient id="SVGID_8_" cx="44.8989" cy="46.9596" r="9.7446" gradientTransform="matrix(1.0499 -0.6062 0.4922 0.8525 -26.9927 36.7772)" gradientUnits="userSpaceOnUse">
		<stop  offset="0.5573" style="stop-color:#FFFFFF;stop-opacity:0"/>
		<stop  offset="1" style="stop-color:#FFFFFF;stop-opacity:0.8"/>
	</radialGradient>
	<path style="fill:url(#SVGID_8_);" d="M54.2,48.61c0.61,3.3-1.48,7.76-5.34,9.99c-4.63,2.67-13.01,1.28-15.16-2.71
		c-1.71-3.18-2.27-12.87,5.9-15.91C50.63,35.85,54.07,47.95,54.2,48.61z"/>
	
		<radialGradient id="SVGID_9_" cx="57.5404" cy="49.9874" r="7.8247" gradientTransform="matrix(1 0 0 1.0089 0 -0.4445)" gradientUnits="userSpaceOnUse">
		<stop  offset="0.5573" style="stop-color:#FFFFFF;stop-opacity:0"/>
		<stop  offset="1" style="stop-color:#FFFFFF;stop-opacity:0.8"/>
	</radialGradient>
	<path style="fill:url(#SVGID_9_);" d="M63.24,55.27c-4.67,5.02-11.74,1.17-11.74,1.17c-4.11-6.41-0.18-13.54-0.18-13.54
		s9.98-2.71,13.4,2.55C64.73,45.46,68.08,50.08,63.24,55.27z"/>
	<path style="opacity:0.9;fill:#FFFFFF;" d="M42.68,44.69c-0.03,0.64-0.41,1.2-0.77,1.72c-0.8,1.14-1.59,2.27-2.39,3.41
		c-0.37,0.53-1.48,2.38-3.09,1.75c-0.53-0.21-0.87-0.73-1.06-1.27c-0.73-2.05,0.27-5.4,2.17-7.03
		C39.41,41.66,42.79,42.22,42.68,44.69z"/>
	<path style="opacity:0.9;fill:#FFFFFF;" d="M101.26,55.42c0.57,0.28,0.99,0.92,0.86,1.55c-0.15,0.75-0.95,1.15-1.58,1.59
		c-0.6,0.41-1.12,0.92-1.53,1.52c-0.27,0.39-0.5,0.82-0.82,1.18s-0.76,0.65-1.24,0.64c-0.45-0.01-0.87-0.28-1.12-0.64
		C93.91,58.44,98.44,54.03,101.26,55.42z"/>
	<path style="opacity:0.43;fill:#80DEEA;" d="M86.04,89.54c0,0,3.64,0.19,6.24,4.48c2.28,3.75,3.14,6.84,3.14,6.84
		s-4.69-0.83-7.29-4.55C85.86,93.05,86.04,89.54,86.04,89.54z"/>
	<path style="opacity:0.5;fill:#80DEEA;" d="M36.24,38.68c0,0-0.87-4.16-0.41-8.19c0,0,2.36,0.23,4.33,1.46
		c2.31,1.45,3.13,2.61,3.13,2.61L36.24,38.68z"/>
	<path style="opacity:0.8;fill:#FFFFFF;" d="M71.01,25.33c-1.45,1.07-2.51,2.34-2.62,4.14c-0.04,0.6,0.06,1.27,0.51,1.66
		c1.67,1.41,3.19-1.51,5.88-1.89c4.73-0.66,3.98-3.51,1.64-4.49C74.86,24.09,72.9,23.94,71.01,25.33z"/>
	<path style="opacity:0.8;fill:#FFFFFF;" d="M101.68,77.44c2.87,1.21,1.74,3.72,0.77,3.99c-3.32,0.94-3.87,2.44-4.71,3.09
		c-0.84,0.66-1.78,1.25-2.83,1.42c-1.05,0.17-2.25-0.18-2.83-1.07c-1.27-1.95,0.81-4.51,2.23-5.79
		C96.28,77.3,99.17,76.38,101.68,77.44z"/>
	<path style="opacity:0.8;fill:#FFFFFF;" d="M84.92,91.44c4.26,0,4.88,2.5,4.73,3.02c-0.47,1.64-2.35,1.03-2.92,0.98
		c-0.89-0.07-1.79,0-2.66,0.21c-0.65,0.16-1.29,0.4-1.96,0.44c-1.44,0.1-2.71-1.19-1.9-2.58C80.95,92.24,83.61,91.44,84.92,91.44z"
		/>
</g>
</svg>

<?xml version="1.0" encoding="UTF-8" standalone="no"?>
<!DOCTYPE svg PUBLIC "-//W3C//DTD SVG 1.1//EN" "http://www.w3.org/Graphics/SVG/1.1/DTD/svg11.dtd">
<svg width="100%" height="100%" viewBox="0 0 128 128" version="1.1" xmlns="http://www.w3.org/2000/svg" xmlns:xlink="http://www.w3.org/1999/xlink" xml:space="preserve" xmlns:serif="http://www.serif.com/" style="fill-rule:evenodd;clip-rule:evenodd;stroke-linejoin:round;stroke-miterlimit:2;">
    <g>
        <path d="M53.31,14.36C63.03,14.36 72.89,20.96 72.89,30.68C72.89,40.4 63.02,49.54 53.31,49.54C48.08,49.54 41.59,47.95 38.36,44.32C38.36,44.32 35.45,40.48 35.71,31.95C36.02,22.24 43.6,14.36 53.31,14.36Z" style="fill:url(#_Radial1);fill-rule:nonzero;"/>
        <circle cx="34.29" cy="42.17" r="11.78" style="fill:url(#_Radial2);"/>
        <path d="M11.92,54.31C25.87,40.65 110.66,33.77 116.69,40.94C120.15,45.05 123.81,51.93 123.98,56.99C124.26,65.52 120.93,72.15 116.17,76.46C113.59,78.79 108.77,82.49 105.87,84.4C93.15,92.79 79.76,101.8 68.37,108.15C57.63,114.14 48.41,115.72 39.41,110.39C36.64,108.75 22.56,100.53 14.06,93.45C7.57,88.06 3.8,77.58 4.01,70.64C4.15,65.77 7.25,58.88 11.92,54.31Z" style="fill:rgb(215,89,139);fill-rule:nonzero;"/>
        <path d="M15.45,51.44C31.79,40.76 63.89,22.61 69.75,19.92C74.61,17.69 80.73,16.82 91.41,22.1C91.41,22.1 101.31,26.92 108.66,32.74C115.72,38.33 122.06,44.77 115.63,52.84C113.47,55.56 108.23,58.87 105.33,60.78C92.61,69.17 79.22,78.18 67.83,84.53C57.09,90.52 47.87,92.1 38.87,86.77C36.1,85.13 22.48,76.31 13.52,69.83C3.46,62.56 10.07,54.96 15.45,51.44Z" style="fill:rgb(215,89,139);fill-rule:nonzero;"/>
        <path d="M18.23,51.54C33.52,41.55 63.85,24.63 69.34,22.12C73.89,20.04 79.62,19.22 89.61,24.16C89.61,24.16 98.87,28.67 105.75,34.11C112.36,39.34 118.29,45.36 112.27,52.92C110.25,55.47 105.34,58.56 102.63,60.35C90.73,68.2 78.2,76.63 67.54,82.57C57.49,88.17 48.86,89.65 40.44,84.67C37.85,83.13 25.1,74.88 16.72,68.82C7.3,62.02 13.2,54.82 18.23,51.54Z" style="fill:rgb(249,195,213);fill-rule:nonzero;"/>
        <path d="M8.05,71.15C7.27,72.3 7.04,73.89 7.01,75.35C6.77,87.16 21.28,95.56 29.89,101.58C34.17,104.58 38.53,107.09 43.94,106.99C45.98,106.95 48.1,106.29 49.48,104.78C51.38,102.69 51.46,99.56 51.33,96.73C51.27,95.49 51.15,94.14 50.29,93.25C49.73,92.68 48.94,92.39 48.19,92.11C40.86,89.37 25.17,78.63 17.8,73.26C15.18,71.36 11.07,66.69 8.05,71.15Z" style="fill:rgb(244,164,191);fill-rule:nonzero;"/>
        <path d="M114.85,53.61C114.02,54.81 112.92,55.9 112.59,57.32C112.14,59.28 113.3,61.21 113.79,63.16C114.42,65.7 113.93,68.47 114.89,70.9C115.06,71.33 115.32,71.78 115.75,71.95C116.44,72.21 117.15,71.64 117.62,71.07C119.93,68.29 121.82,63.5 121.88,59.89C121.92,57.21 120.95,52.19 119.21,50C117.1,47.35 115.9,52.08 114.85,53.61Z" style="fill:rgb(244,164,191);fill-rule:nonzero;"/>
        <path d="M21.43,85.23C20.99,84.16 20.06,83.35 19.07,82.76C18.83,82.62 18.58,82.48 18.41,82.26C17.99,81.73 18.16,80.98 18.14,80.31C18.09,78.87 16.95,77.55 15.53,77.29C14.85,77.17 14.06,77.29 13.62,77.83C12.5,79.23 13.5,81.15 14.24,81.8C14.69,82.19 15.89,82.42 15.67,83.48C15.63,83.67 15.54,83.84 15.46,84.01C15.1,84.77 15.03,85.67 15.27,86.48C15.72,87.99 17.13,88.83 18.64,88.97C19.39,89.04 20.2,88.9 20.78,88.43C21.7,87.68 21.87,86.3 21.43,85.23Z" style="fill:rgb(249,195,213);fill-rule:nonzero;"/>
        <path d="M55.21,103.43C56.2,103.63 57.14,104.42 57.19,105.43C57.23,106.19 56.77,106.92 56.16,107.37C55.55,107.83 52.71,109.82 49.85,107.92C49.4,107.62 49.16,107.08 48.81,106.66C48.46,106.24 47.98,105.87 47.44,105.88C44.94,105.91 46.31,102.8 48.47,103.75C49.3,104.12 49.94,104.46 50.88,104.27C52.36,103.98 53.63,103.11 55.21,103.43Z" style="fill:rgb(244,164,191);fill-rule:nonzero;"/>
        <path d="M64.43,93.49C63.5,94.29 62.79,95.35 62.41,96.51C62.24,97.03 62.15,97.66 62.51,98.07C62.81,98.42 63.33,98.49 63.79,98.46C65.14,98.39 66.42,97.74 67.46,96.88C68.45,96.06 70.15,93.78 68.55,92.69C67.38,91.9 65.35,92.7 64.43,93.49Z" style="fill:rgb(244,164,191);fill-rule:nonzero;"/>
        <path d="M53.31,14.36C63.03,14.36 72.89,20.96 72.89,30.68C72.89,40.4 63.02,49.54 53.31,49.54C48.08,49.54 41.59,47.95 38.36,44.32C38.36,44.32 35.45,40.48 35.71,31.95C36.02,22.24 43.6,14.36 53.31,14.36Z" style="fill:url(#_Radial3);fill-rule:nonzero;"/>
        <path d="M76.37,95.24C78.84,88.16 85.96,89.54 85.96,89.54C92.55,90.17 95.42,100.86 95.42,100.86C95.42,100.86 89.7,108.71 80.71,105.71C76.19,104.19 74.69,100.06 76.37,95.24Z" style="fill:url(#_Radial4);fill-rule:nonzero;"/>
        <path d="M86.04,89.54C87.83,79.13 95.74,73.52 105.23,74.56C110.21,75.11 115.6,83.19 112.66,92.24C110.14,99.99 101.04,102.14 95.43,100.85C85.55,98.6 86.04,89.54 86.04,89.54Z" style="fill:url(#_Radial5);fill-rule:nonzero;"/>
        <circle cx="101.25" cy="61.06" r="8.12" style="fill:url(#_Radial6);"/>
        <path d="M57.64,18.2C60.25,19.19 62.53,21.22 63.48,23.85C64.03,25.38 63.98,27.38 62.64,28.3C61.8,28.87 60.16,29.24 56.86,26.8C51.67,22.96 50.22,26.3 45.59,25.17C42,24.3 43.63,21.36 44.27,20.62C47.4,16.99 53.44,16.6 57.64,18.2Z" style="fill:white;fill-opacity:0.9;fill-rule:nonzero;"/>
        <path d="M25.91,40.7C26.34,40.96 26.91,40.82 27.34,40.55C28.32,39.95 27.99,38.3 29.95,36.5C30.31,36.17 31.64,34.87 30.78,34C29.65,32.86 27.55,33.71 26.22,35.48C24.73,37.48 24.54,39.88 25.91,40.7Z" style="fill:white;fill-opacity:0.9;fill-rule:nonzero;"/>
        <path d="M69.02,41.08C69.02,41.08 66.11,37.96 66.67,30.39C67.08,24.87 70.32,22.36 70.32,22.36C70.32,22.36 79.46,20.93 83.98,25.84C87.6,29.77 86.8,34.87 82.4,38.13C75.68,43.1 69.02,41.08 69.02,41.08Z" style="fill:url(#_Radial7);fill-rule:nonzero;"/>
        <path d="M54.2,48.61C54.81,51.91 52.72,56.37 48.86,58.6C44.23,61.27 35.85,59.88 33.7,55.89C31.99,52.71 31.43,43.02 39.6,39.98C50.63,35.85 54.07,47.95 54.2,48.61Z" style="fill:url(#_Radial8);fill-rule:nonzero;"/>
        <path d="M63.24,55.27C58.57,60.29 51.5,56.44 51.5,56.44C47.39,50.03 51.32,42.9 51.32,42.9C51.32,42.9 61.3,40.19 64.72,45.45C64.73,45.46 68.08,50.08 63.24,55.27Z" style="fill:url(#_Radial9);fill-rule:nonzero;"/>
        <path d="M42.68,44.69C42.65,45.33 42.27,45.89 41.91,46.41C41.11,47.55 40.32,48.68 39.52,49.82C39.15,50.35 38.04,52.2 36.43,51.57C35.9,51.36 35.56,50.84 35.37,50.3C34.64,48.25 35.64,44.9 37.54,43.27C39.41,41.66 42.79,42.22 42.68,44.69Z" style="fill:white;fill-opacity:0.9;fill-rule:nonzero;"/>
        <path d="M101.26,55.42C101.83,55.7 102.25,56.34 102.12,56.97C101.97,57.72 101.17,58.12 100.54,58.56C99.94,58.97 99.42,59.48 99.01,60.08C98.74,60.47 98.51,60.9 98.19,61.26C97.87,61.62 97.43,61.91 96.95,61.9C96.5,61.89 96.08,61.62 95.83,61.26C93.91,58.44 98.44,54.03 101.26,55.42Z" style="fill:white;fill-opacity:0.9;fill-rule:nonzero;"/>
        <path d="M86.04,89.54C86.04,89.54 89.68,89.73 92.28,94.02C94.56,97.77 95.42,100.86 95.42,100.86C95.42,100.86 90.73,100.03 88.13,96.31C85.86,93.05 86.04,89.54 86.04,89.54Z" style="fill:rgb(128,222,234);fill-opacity:0.43;fill-rule:nonzero;"/>
        <path d="M36.24,38.68C36.24,38.68 35.37,34.52 35.83,30.49C35.83,30.49 38.19,30.72 40.16,31.95C42.47,33.4 43.29,34.56 43.29,34.56L36.24,38.68Z" style="fill:rgb(128,222,234);fill-opacity:0.5;fill-rule:nonzero;"/>
        <path d="M71.01,25.33C69.56,26.4 68.5,27.67 68.39,29.47C68.35,30.07 68.45,30.74 68.9,31.13C70.57,32.54 72.09,29.62 74.78,29.24C79.51,28.58 78.76,25.73 76.42,24.75C74.86,24.09 72.9,23.94 71.01,25.33Z" style="fill:white;fill-opacity:0.8;fill-rule:nonzero;"/>
        <path d="M101.68,77.44C104.55,78.65 103.42,81.16 102.45,81.43C99.13,82.37 98.58,83.87 97.74,84.52C96.9,85.18 95.96,85.77 94.91,85.94C93.86,86.11 92.66,85.76 92.08,84.87C90.81,82.92 92.89,80.36 94.31,79.08C96.28,77.3 99.17,76.38 101.68,77.44Z" style="fill:white;fill-opacity:0.8;fill-rule:nonzero;"/>
        <path d="M84.92,91.44C89.18,91.44 89.8,93.94 89.65,94.46C89.18,96.1 87.3,95.49 86.73,95.44C85.84,95.37 84.94,95.44 84.07,95.65C83.42,95.81 82.78,96.05 82.11,96.09C80.67,96.19 79.4,94.9 80.21,93.51C80.95,92.24 83.61,91.44 84.92,91.44Z" style="fill:white;fill-opacity:0.8;fill-rule:nonzero;"/>
    </g>
    <defs>
        <radialGradient id="_Radial1" cx="0" cy="0" r="1" gradientUnits="userSpaceOnUse" gradientTransform="matrix(22.3828,0,0,22.582,55.2159,35.091)"><stop offset="0" style="stop-color:rgb(128,222,234);stop-opacity:0"/><stop offset="0.52" style="stop-color:rgb(128,222,234);stop-opacity:0"/><stop offset="1" style="stop-color:rgb(128,222,234);stop-opacity:0.7"/></radialGradient>
        <radialGradient id="_Radial2" cx="0" cy="0" r="1" gradientUnits="userSpaceOnUse" gradientTransform="matrix(11.565,0,0,11.6679,35.8091,43.7575)"><stop offset="0" style="stop-color:rgb(128,222,234);stop-opacity:0"/><stop offset="0.55" style="stop-color:rgb(128,222,234);stop-opacity:0"/><stop offset="1" style="stop-color:rgb(128,222,234);stop-opacity:0.7"/></radialGradient>
        <radialGradient id="_Radial3" cx="0" cy="0" r="1" gradientUnits="userSpaceOnUse" gradientTransform="matrix(21.3675,0,0,21.5577,50.3678,26.2436)"><stop offset="0" style="stop-color:white;stop-opacity:0"/><stop offset="0.6" style="stop-color:white;stop-opacity:0"/><stop offset="1" style="stop-color:white;stop-opacity:0.8"/></radialGradient>
        <radialGradient id="_Radial4" cx="0" cy="0" r="1" gradientUnits="userSpaceOnUse" gradientTransform="matrix(9.1951,0,0,9.1951,85.5637,97.9075)"><stop offset="0" style="stop-color:rgb(128,222,234);stop-opacity:0"/><stop offset="0.38" style="stop-color:rgb(128,222,234);stop-opacity:0"/><stop offset="1" style="stop-color:rgb(128,222,234);stop-opacity:0.8"/></radialGradient>
        <radialGradient id="_Radial5" cx="0" cy="0" r="1" gradientUnits="userSpaceOnUse" gradientTransform="matrix(14.931,0,0,14.931,99.1163,87.032)"><stop offset="0" style="stop-color:rgb(128,222,234);stop-opacity:0"/><stop offset="0.38" style="stop-color:rgb(128,222,234);stop-opacity:0"/><stop offset="1" style="stop-color:rgb(128,222,234);stop-opacity:0.8"/></radialGradient>
        <radialGradient id="_Radial6" cx="0" cy="0" r="1" gradientUnits="userSpaceOnUse" gradientTransform="matrix(7.785,0,0,7.785,101.385,61.0873)"><stop offset="0" style="stop-color:white;stop-opacity:0"/><stop offset="0.56" style="stop-color:white;stop-opacity:0"/><stop offset="1" style="stop-color:white;stop-opacity:0.8"/></radialGradient>
        <radialGradient id="_Radial7" cx="0" cy="0" r="1" gradientUnits="userSpaceOnUse" gradientTransform="matrix(9.5558,0,0,9.64085,75.8437,30.8366)"><stop offset="0" style="stop-color:white;stop-opacity:0"/><stop offset="0.56" style="stop-color:white;stop-opacity:0"/><stop offset="1" style="stop-color:white;stop-opacity:0.8"/></radialGradient>
        <radialGradient id="_Radial8" cx="0" cy="0" r="1" gradientUnits="userSpaceOnUse" gradientTransform="matrix(10.2309,-5.90718,4.79629,8.30727,43.2602,49.5925)"><stop offset="0" style="stop-color:white;stop-opacity:0"/><stop offset="0.56" style="stop-color:white;stop-opacity:0"/><stop offset="1" style="stop-color:white;stop-opacity:0.8"/></radialGradient>
        <radialGradient id="_Radial9" cx="0" cy="0" r="1" gradientUnits="userSpaceOnUse" gradientTransform="matrix(7.8247,0,0,7.89434,57.5404,49.9878)"><stop offset="0" style="stop-color:white;stop-opacity:0"/><stop offset="0.56" style="stop-color:white;stop-opacity:0"/><stop offset="1" style="stop-color:white;stop-opacity:0.8"/></radialGradient>
    </defs>
</svg>
